X:110
T:Dem Milners Trern
O:klezmer
M:3/4
L:1/8
Q:1/4=120
K:C
V:1
G,C D|"C" E2 DG, CD |"G" E2 DG, CD |
M:2/4
"C" EC "Dm" FE |"G" (D4 |D)  |:A, DE |
"Dm" FA (A2 |A)G, CD |"C" EG (G2 |G)G, CD |
EC "G" DB, |"C" C4 |C:| |:A, DE |
"Dm" FA A2 |AG, CD |"C" EG (G2 |G)G, CD |
EC "G" DB, |"C" (C4 |C):|





